image/icon/Riften_undiscovered.svg

<!--version="1.0" encoding="UTF-8"--><svg version="1.1" id="Layer_1" xmlns="http://www.w3.org/2000/svg" width="39" height="42" xml:space="preserve"><g id="PathID_10" transform="matrix(1, 0, 0, 1, 19.1, 21)"><path style="fill: rgb(0, 0, 0); fill-opacity: 1;" d="m11.85-19.4-.05-.05-8.8 5q-.05.85-3 4.3-3-3.5-3.05-4.35l-8.8-4.95h-.05l4.95 8.8 1.3.65 3.2 2.5-3.2 2.85-.4.3q-2.4 1.95-3.3 2.4-.15-1.5.6-2.65l.2-.2v-.1l-.1-1-.05-.15h-.15l-1.1.15h-.1l-.2.3q-.85 1.25-.95 2.85-.1 1.6.6 3-.55.35-.45 1l-6.7 5.05.25 3.45 3.45.3.05-.05 5.2-6.75.75-.3.2.05 2.2.55h.75q1.55-.15 2.8-1l.3-.2.05-.05.15-1.1V1h-.2l-1-.1h-.05l-.25.15q-1.15.8-2.55.65.45-.9 2.45-3.3L0-5.2Q4.65-.25 5.6 1.7q-1.5.15-2.65-.6l-.2-.2-.1.05-1 .1H1.5v.15l.15 1.1v.1l.3.2q1.25.85 2.85.95L6 3.5l1.8-.55q.35.55 1 .45l5.05 6.7 3.45-.25.3-3.45-6.8-5.25-.3-.75V.2q.7-1.4.55-2.95-.1-1.55-.95-2.8l-.2-.3-.05-.05L8.7-6l-.15-.05v.2l-.1 1v.05l.15.25Q9.35-3.5 9.25-2L6-4.35 2.45-7.5 6-10.25l.85-.35 5-8.75v-.05m.65 1.95h1.9V-1l-.3 3 1.1.85 3.95 3.05-.45 5.25-.2.05-5.25.4L8.1 4.75l-.5-.15-.5.15-.5.1-.6.1h-.05v9q2.7-2.7 4.5-6l.85 1.1Q7.5 15.7.95 19.45l-.3.25H-.4l-.25-.25Q-7.4 15.65-11.1 8.8l-.85 1.05-1.3 1.65h-.1l-.1.05-5.25-.45-.4-5.25 4.3-3.2 1-.65v-.1l-.35-2.9v-16.45h1.8l-.45-.8-.7-1.3.7-.65v-.05l.7-.7.1.05.1-.1 4 2.25 2.3 1.3H5.95l1.4-.8 4.7-2.65.05.05.15-.1 1.4 1.4-.45.8-.7 1.3M7.15-4.95l.15-2.3 1.5.05 1.3.2h.1l.5.1.3.45.15.3q1 1.4 1.2 3.2.2 1.75-.45 3.4V.5l1 .75.2-2.25v-15.15h-1.55l-3.9 6.9H7.6l-.55.05L6-8.55l-.05.05v2.55L7.1-5l.05.05m-17.4-2.1L-9-7.2l1.55-.1h.05v1.55l.1.75v.05l1.6-1.3v-2l-1.5-.95-.55-.05-.95-1.7-2.85-5.2h-1.3V-1l.2 2-.15.15.55-.45.15-.5q-.55-1.6-.35-3.3.2-1.7 1.15-3.1l.5-.7.5-.1.05-.05m2.3 11.55H-8l-2.3 3.05q1.75 3.5 4.6 6.4V5l-1.1-.15-.55-.15-.6-.2"/><path style="fill: rgb(255, 255, 255); fill-opacity: 1;" d="m11.85-19.35-5 8.75-.85.35L2.45-7.5 6-4.35 9.25-2q.1-1.5-.65-2.55l-.15-.25v-.05l.1-1v-.2L8.7-6l1.15.1.05.05.2.3q.85 1.25.95 2.8Q11.2-1.2 10.5.2v.2l.3.75 6.8 5.25-.3 3.45-3.45.25L8.8 3.4q-.65.1-1-.45L6 3.5l-1.2.05q-1.6-.1-2.85-.95l-.3-.2v-.1L1.5 1.2v-.15h.15l1-.1.1-.05.2.2q1.15.75 2.65.6Q4.65-.25 0-5.2l-3.2 3.6q-2 2.4-2.45 3.3 1.4.15 2.55-.65l.25-.15h.05l1 .1h.2v.2l-.15 1.1-.05.05-.3.2q-1.25.85-2.8 1h-.75L-7.85 3l-.2-.05-.75.3L-14 10l-.05.05-3.45-.3-.25-3.45 6.7-5.05q-.1-.65.45-1-.7-1.4-.6-3 .1-1.6.95-2.85l.2-.3h.1l1.1-.15h.15l.05.15.1 1v.1l-.2.2q-.75 1.15-.6 2.65.9-.45 3.3-2.4l.4-.3 3.2-2.85-3.2-2.5-1.3-.65-4.95-8.8h.05l8.8 4.95q.05.85 3.05 4.35 2.95-3.45 3-4.3l8.8-5 .05.05v.05m-3.7.6-.8.5-1.4.8H-5.6l-2.3-1.3H8.15m-23.1 21.5q-.5-2-.5-3.75v-17.75h2.35l.3.5.45.8h-1.8V-1l.35 2.9V2l-1 .65-.15.1m27.05 7.4Q8.25 16.7 1.7 20.5l-.1.15-.4.35H-.95l-.5-.5q-6.7-3.9-10.5-10.65l.85-1.05q3.7 6.85 10.45 10.65l.25.25H.65l.3-.25Q7.5 15.7 11.3 9.05l.8 1.1m-4.05-5.4 2.4 3.2q-1.8 3.3-4.5 6v-9H6l.6-.1.5-.1.5-.15.45.15m7.15-1.9L14.1 2l.3-3v-16.45h-1.9l.7-1.3h2.5V-1q0 1.8-.5 3.85M7.25-7.25 7.1-5l-1.15-.95V-8.5L6-8.55l1.05-.65.55-.05h.05l3.9-6.9h1.55V-1l-.2 2.25-1-.75V.45q.65-1.65.45-3.4-.2-1.8-1.2-3.2l-.15-.3-.3-.45-.5-.1h-.1l-1.3-.2-1.5-.05h-.05m-15.05-2h.05l.55.05 1.5.95v2l-1.6 1.3V-5l-.1-.75V-7.3h-.05L-9-7.2l-1.25.15h-.05l-.05.05-.5.1-.5.7q-.95 1.4-1.15 3.1-.2 1.7.35 3.3l-.15.5-.35.3-.2-2v-15.15h1.3l2.85 5.2.9 1.7m.45 13.95.55.15 1.1.15v8.95q-2.85-2.9-4.6-6.4L-8 4.5l.65.2"/></g></svg>

<?xml version="1.0" encoding="UTF-8"?>
<svg version="1.1" id="Layer_1" xmlns="http://www.w3.org/2000/svg" xmlns:xlink="http://www.w3.org/1999/xlink" width="39px" height="42px" xml:space="preserve">
<g id="PathID_10" transform="matrix(1, 0, 0, 1, 19.1, 21)">
<path style="fill:#000000;fill-opacity:1" d="M11.85 -19.4L11.8 -19.45L3 -14.45Q2.95 -13.6 0 -10.15Q-3 -13.65 -3.05 -14.5L-11.85 -19.45L-11.9 -19.45L-6.95 -10.65L-5.65 -10L-2.45 -7.5L-5.65 -4.65L-6.05 -4.35Q-8.45 -2.4 -9.35 -1.95Q-9.5 -3.45 -8.75 -4.6L-8.55 -4.8L-8.55 -4.9L-8.65 -5.9L-8.7 -6.05L-8.85 -6.05L-9.95 -5.9L-10.05 -5.9L-10.25 -5.6Q-11.1 -4.35 -11.2 -2.75Q-11.3 -1.15 -10.6 0.25Q-11.15 0.6 -11.05 1.25L-17.75 6.3L-17.5 9.75L-14.05 10.05L-14 10L-8.8 3.25L-8.05 2.95L-7.85 3L-5.65 3.55L-4.9 3.55Q-3.35 3.4 -2.1 2.55L-1.8 2.35L-1.75 2.3L-1.6 1.2L-1.6 1L-1.8 1L-2.8 0.9L-2.85 0.9L-3.1 1.05Q-4.25 1.85 -5.65 1.7Q-5.2 0.8 -3.2 -1.6L0 -5.2Q4.65 -0.25 5.6 1.7Q4.1 1.85 2.95 1.1L2.75 0.9L2.65 0.95L1.65 1.05L1.5 1.05L1.5 1.2L1.65 2.3L1.65 2.4L1.95 2.6Q3.2 3.45 4.8 3.55L6 3.5L7.8 2.95Q8.15 3.5 8.8 3.4L13.85 10.1L17.3 9.85L17.6 6.4L10.8 1.15L10.5 0.4L10.5 0.2Q11.2 -1.2 11.05 -2.75Q10.95 -4.3 10.1 -5.55L9.9 -5.85L9.85 -5.9L8.7 -6L8.55 -6.05L8.55 -5.85L8.45 -4.85L8.45 -4.8L8.6 -4.55Q9.35 -3.5 9.25 -2L6 -4.35L2.45 -7.5L6 -10.25L6.85 -10.6L11.85 -19.35L11.85 -19.4M12.5 -17.45L14.4 -17.45L14.4 -1L14.1 2L15.2 2.85L19.15 5.9L18.7 11.15L18.5 11.2L13.25 11.6L8.1 4.75L7.6 4.6L7.1 4.75L6.6 4.85L6 4.95L5.95 4.95L5.95 13.95Q8.65 11.25 10.45 7.95L11.3 9.05Q7.5 15.7 0.95 19.45L0.65 19.7L-0.4 19.7L-0.65 19.45Q-7.4 15.65 -11.1 8.8L-11.95 9.85L-13.25 11.5L-13.35 11.5L-13.45 11.55L-18.7 11.1L-19.1 5.85L-14.8 2.65L-13.8 2L-13.8 1.9L-14.15 -1L-14.15 -17.45L-12.35 -17.45L-12.8 -18.25L-13.5 -19.55L-12.8 -20.2L-12.8 -20.25L-12.1 -20.95L-12 -20.9L-11.9 -21L-7.9 -18.75L-5.6 -17.45L5.9 -17.45L5.95 -17.45L7.35 -18.25L12.05 -20.9L12.1 -20.85L12.25 -20.95L13.65 -19.55L13.2 -18.75L12.5 -17.45M7.15 -4.95L7.3 -7.25L8.8 -7.2L10.1 -7L10.2 -7L10.7 -6.9L11 -6.45L11.15 -6.15Q12.15 -4.75 12.35 -2.95Q12.55 -1.2 11.9 0.45L11.9 0.5L12.9 1.25L13.1 -1L13.1 -16.15L11.55 -16.15L7.65 -9.25L7.6 -9.25L7.05 -9.2L6 -8.55L5.95 -8.5L5.95 -5.95L7.1 -5L7.15 -4.95M-10.25 -7.05L-9 -7.2L-7.45 -7.3L-7.4 -7.3L-7.4 -5.75L-7.3 -5L-7.3 -4.95L-5.7 -6.25L-5.7 -8.25L-7.2 -9.2L-7.75 -9.25L-8.7 -10.95L-11.55 -16.15L-11.6 -16.15L-12.85 -16.15L-12.85 -1L-12.65 1L-12.8 1.15L-12.25 0.7L-12.1 0.2Q-12.65 -1.4 -12.45 -3.1Q-12.25 -4.8 -11.3 -6.2L-10.8 -6.9L-10.3 -7L-10.25 -7.05M-7.95 4.5L-8 4.5L-10.3 7.55Q-8.55 11.05 -5.7 13.95L-5.7 5L-6.8 4.85L-7.35 4.7L-7.95 4.5"/>
<path style="fill:#FFFFFF;fill-opacity:1" d="M11.85 -19.35L6.85 -10.6L6 -10.25L2.45 -7.5L6 -4.35L9.25 -2Q9.35 -3.5 8.6 -4.55L8.45 -4.8L8.45 -4.85L8.55 -5.85L8.55 -6.05L8.7 -6L9.85 -5.9L9.9 -5.85L10.1 -5.55Q10.95 -4.3 11.05 -2.75Q11.2 -1.2 10.5 0.2L10.5 0.4L10.8 1.15L17.6 6.4L17.3 9.85L13.85 10.1L8.8 3.4Q8.15 3.5 7.8 2.95L6 3.5L4.8 3.55Q3.2 3.45 1.95 2.6L1.65 2.4L1.65 2.3L1.5 1.2L1.5 1.05L1.65 1.05L2.65 0.95L2.75 0.9L2.95 1.1Q4.1 1.85 5.6 1.7Q4.65 -0.25 0 -5.2L-3.2 -1.6Q-5.2 0.8 -5.65 1.7Q-4.25 1.85 -3.1 1.05L-2.85 0.9L-2.8 0.9L-1.8 1L-1.6 1L-1.6 1.2L-1.75 2.3L-1.8 2.35L-2.1 2.55Q-3.35 3.4 -4.9 3.55L-5.65 3.55L-7.85 3L-8.05 2.95L-8.8 3.25L-14 10L-14.05 10.05L-17.5 9.75L-17.75 6.3L-11.05 1.25Q-11.15 0.6 -10.6 0.25Q-11.3 -1.15 -11.2 -2.75Q-11.1 -4.35 -10.25 -5.6L-10.05 -5.9L-9.95 -5.9L-8.85 -6.05L-8.7 -6.05L-8.65 -5.9L-8.55 -4.9L-8.55 -4.8L-8.75 -4.6Q-9.5 -3.45 -9.35 -1.95Q-8.45 -2.4 -6.05 -4.35L-5.65 -4.65L-2.45 -7.5L-5.65 -10L-6.95 -10.65L-11.9 -19.45L-11.85 -19.45L-3.05 -14.5Q-3 -13.65 0 -10.15Q2.95 -13.6 3 -14.45L11.8 -19.45L11.85 -19.4L11.85 -19.35M8.15 -18.75L7.35 -18.25L5.95 -17.45L5.9 -17.45L-5.6 -17.45L-7.9 -18.75L8.15 -18.75M-14.95 2.75Q-15.45 0.75 -15.45 -1L-15.45 -18.75L-13.1 -18.75L-12.8 -18.25L-12.35 -17.45L-14.15 -17.45L-14.15 -1L-13.8 1.9L-13.8 2L-14.8 2.65L-14.95 2.75M12.1 10.15Q8.25 16.7 1.7 20.5L1.6 20.65L1.2 21L-0.95 21L-1.45 20.5Q-8.15 16.6 -11.95 9.85L-11.1 8.8Q-7.4 15.65 -0.65 19.45L-0.4 19.7L0.65 19.7L0.95 19.45Q7.5 15.7 11.3 9.05L12.1 10.15M8.05 4.75L10.45 7.95Q8.65 11.25 5.95 13.95L5.95 4.95L6 4.95L6.6 4.85L7.1 4.75L7.6 4.6L8.05 4.75M15.2 2.85L14.1 2L14.4 -1L14.4 -17.45L12.5 -17.45L13.2 -18.75L15.7 -18.75L15.7 -1Q15.7 0.8 15.2 2.85M7.25 -7.25L7.1 -5L5.95 -5.95L5.95 -8.5L6 -8.55L7.05 -9.2L7.6 -9.25L7.65 -9.25L11.55 -16.15L13.1 -16.15L13.1 -1L12.9 1.25L11.9 0.5L11.9 0.45Q12.55 -1.2 12.35 -2.95Q12.15 -4.75 11.15 -6.15L11 -6.45L10.7 -6.9L10.2 -7L10.1 -7L8.8 -7.2L7.3 -7.25L7.25 -7.25M-7.8 -9.25L-7.75 -9.25L-7.2 -9.2L-5.7 -8.25L-5.7 -6.25L-7.3 -4.95L-7.3 -5L-7.4 -5.75L-7.4 -7.3L-7.45 -7.3L-9 -7.2L-10.25 -7.05L-10.3 -7.05L-10.35 -7L-10.85 -6.9L-11.35 -6.2Q-12.3 -4.8 -12.5 -3.1Q-12.7 -1.4 -12.15 0.2L-12.3 0.7L-12.65 1L-12.85 -1L-12.85 -16.15L-11.6 -16.15L-11.55 -16.15L-8.7 -10.95L-7.8 -9.25M-7.35 4.7L-6.8 4.85L-5.7 5L-5.7 13.95Q-8.55 11.05 -10.3 7.55L-8 4.5L-7.35 4.7"/>
</g>
</svg>
